modules/coreui-icons-free/icons/signal-cellular-4.svg

<!-- Generated by IcoMoon.io -->
<svg version="1.1" xmlns="http://www.w3.org/2000/svg" width="24" height="24" viewBox="0 0 24 24">
<title>signal-cellular-4</title>
<path d="M18.037 4.125h-0.005v0.005l-17.282 17.282v1.838h22.5v-22.5h-1.838zM15.407 8.876l2.625-2.625v15.499h-2.625zM13.907 21.75h-2.625v-8.749l2.625-2.625zM9.782 21.75h-2.625v-4.624l2.625-2.625zM5.657 18.626v3.124h-3.124zM21.75 21.75h-2.218v-16.999l2.218-2.218z"></path>
</svg>

<svg xmlns="http://www.w3.org/2000/svg" width="24" height="24" viewBox="0 0 24 24"><path d="M18.037 4.125h-.005v.005L.75 21.412v1.838h22.5V.75h-1.838zm-2.63 4.751l2.625-2.625V21.75h-2.625zm-1.5 12.874h-2.625v-8.749l2.625-2.625zm-4.125 0H7.157v-4.624l2.625-2.625zm-4.125-3.124v3.124H2.533zM21.75 21.75h-2.218V4.751l2.218-2.218z"/></svg>
